X:1
T:F# minor Daniel Belknap, 1797
T:Isaac Watts, 1719 (Psalm 22)  88. 88. (L. M.)
T:Lower Falls
T:Transcribed from The Harmonist's Companion, 1797.
%%score [ 1 2 3 4 ]
L:1/8
M:4/4
K:A
V:1 treble nm="Treble" snm="Tr."
V:2 treble nm="Counter" snm="C."
V:3 treble-8 nm="Tenor" snm="T."
V:4 bass nm="Bass" snm="B."
V:1
 A4 c2 c2 | c>B A2 A2 c2 | c6 d2 | (c3 B A2) B2 | c2 B2 c2 ^d2 | e6 ed | c2 c2 f2 f2 | %7
w: 1.~Now let our|mourn- * ful songs re-|cord The|dy- * * ing|sor- rows of our|Lord, When *|he com- plained in|
 (e3 d c2) B2 | B6 A2 | A2 c2 c2 d2 | c4 c4 | c8 |: z4 c4 | A2 A2 c2 c2 | e2 ed c2 c2 | %15
w: tears * * and|blood, As|one for- sa- ken|of his|God.|The|Jews be- held him|thus for- * lorn, And|
 (c>B cd c2) cd | e2 f2 e2 e2 | f6 ed | c2 c2 c2 B2 | e2 e2 fe d2 | (c3 B c2) B2 | (A>B cB A2) d2 | %22
w: shake * * * * their *|heads, and laugh in|scorn: "He *|res- cued oth- ers|from the grave; * Now|let~ _ _ him|try~ _ _ _ _ him-|
 c6 c2 | c8 :| %24
w: self to|save."|
V:2
 F4 A2 A2 | A2 A2 F2 G2 | A6 A2 | E6 G2 | A2 F2 F2 G2 | G6 G2 | F2 F2 A2 A2 | (A3 B A2) F2 | %8
w: 2.~"This is the|man did once pre-|tend God|was his|Fath- er and his|friend; If|God, the bles- sed,|loved * * him|
 G6 F2 | A2 G2 A2 BA | G4 G4 | F8 |: z4 F4 | F2 F2 F2 A2 | G2 G2 G2 A2 | A6 A2 | G2 F2 G2 G2 | %17
w: so, Why|doth he fail to *|help him|now?"|Bar-|ba- rous peo- ple!|Cru- el priests! How|they stood|round like sav- age|
 A6 G2 | A2 A2 A2 G2 | G2 G2 F2 A2 | A6 B2 | (E2 A4) F2 | E6 E2 | F8 :| %24
w: beasts! Like|li- ons ga- ping|to de- vour, When|God had|left~ _ him|in their|power.|
V:3
 c4 f2 f2 | e2 A>B c2 ^e2 | f6 f2 | (e3 d c2) B2 | A2 d2 c2 B2 | c6 c2 | A2 AB c2 d2 | %7
w: 3.~They wound his|head, his * hands, his|feet, Till|streams * * of|blood each oth- er|meet; By|lot his * gar- ments|
 (c3 B c2) f2 | e6 d2 | c2 c2 f2 f2 | ^e6 e2 | f8 |: z4 c4 | c2 c2 A2 A2 | c2 cd e2 f2 | %15
w: they * * di-|vide, And|mock the pangs in|which he|died.|But|God, his Fa- ther,|heard his * cry; Raised|
 (e>dcB A2) A2 | B2 B2 e2 d2 | c6 e2 | f2 f2 fe d2 | c2 c2 c2 f2 | (e3 d c2) d2 | (c>B AB c2) f2 | %22
w: from~ _ _ _ _ the|dead, he reigns on|high; The|na- tions learn * his|right- eous- ness, And|hum- * * ble|sin- * * * * ners|
 (e>d cB A2) G2 | F8 :| %24
w: taste * * * * his|grace.|
V:4
 F,4 F,2 F,2 | A,>G, F,2 C,2 C,2 | F,6 F,2 | A,6 G,2 | F,2 B,2 A,2 G,F, | C,6 C,2 | %6
 F,2 F,2 F,2 F,G, | (A,3 G, A,2) B,2 | E,6 F,2 | C,2 ^E,2 F,2 B,2 | C4 C,4 | F,8 |: z4 F,4 | %13
 F,2 F,2 F,2 F,2 | C,2 C,2 C,2 F,2 | (A,>B,A,G, F,2) F,2 | E,2 D,2 C,2 C,2 | F,6 CB, | %18
 A,2 F,2 F,2 G,2 | C,2 C,2 F,2 F,2 | (A,3 B, A,2) G,2 | (A,>G, F,G, A,2) B,2 | C4 C,4 | F,8 :| %24

